X:1
T:Road to the Isles
M:4/4
L:1/16
K:G
 D3- G| B8 d3 B A3 B| G3 A G3 F E4 G3- F| E3 D E3 F G3 A B3 d| c12|\
 D3- G| B8 d3 B A3 B| G3 A G3 F E4 c4| B3 d B3 G D3 F A3 F| G12| B3 c|\
 d3 D D3 D d3 D D3 D| G3 A G3 F E4 G3- F| E3 D E3 F G3 A B3 d| A12|\
 B3 c| d3 D D3 D d3 D D3- D| G3 A G3 F E4 c4| B3 d B3 G D3 F A3 F|\
 G12| D3- G| B8 d3 B A3 B| G3 A G3 F E4 c4| B3 d B3 G D3 F A3 F| G12||\
